X: 4323
T: Bog Road, The
R: reel
M: 4/4
K: Dmajor
|:D2dd BAFA|BAFA BFAF|D2dd BAFA|BFAF E3F|
D2dd BAFA|BAFA B3d|ABdf efdB|1 AFDF E2FE:|2 AFdF E3f||
|:d2fd adfd|edBe egfe|d2fd adfd|BAdF E3f|
d2fd adfd|edBe e2de|faaf efdB|1 AFdF E2fe:|2 AFdF E2FE||

